!!!OTL: DE KUCKUK UP DEN TUNE SATT
!!!ARE: Europa, Mitteleuropa, Deutschland, Westfalen
!!!SCT: E0880A
!!!YEM: Copyright 1995, estate of Helmut Schaffrath.
**kern
*ICvox
*Ivox
*M4/4
*k[b-]
*F:
{4a
=1
8g
8f
8e
8f
4g
4a
=2
4f
2r}
{4a
=3
8g
8f
8e
8f
4g
4a
=4
4f
2r}
{4c
=5
8f
8g
8a
8b-
8.cc
16bn
8.cc
16bn
=6
4cc
8.cc
16cc
4cc}
{4a
=7
8g
8f
8e
8f
4g
4a
=8
4f
2r}
==
!!!AGN: Hochzeits -, Ehestands - Lied
!!!ONB: ESAC (Essen Associative Code) Database: ERK2
!!!AMT: simple quadruple
!!!AIN: vox
!!!EED: Helmut Schaffrath
!!!EEV: 1.0
*-
